X:1
T:Irae, LM
T:Irae, LM
T:Joseph Barnby (1838-1896)
T:Public Domain Courtesy of the Cyber Hymnal™
C:Joseph Barnby (1838-1896)
Z:Public Domain
Z:Courtesy of the Cyber Hymnal™
%%score ( 1 2 ) ( 3 4 )
L:1/8
Q:1/4=108
M:4/4
K:Eb
V:1 treble 
V:2 treble 
V:3 bass 
V:4 bass 
V:1
 G2 | E2 D2 C2 [G,C]2 | C2 [B,C]2 [A,C]2 c2 | A2 G2 F2 [CF]2 | A3 z A [DG]2 [_B,G]2 | %5
 [CG]2 [=B,G]2 [Cc]2 [=Ec]2 | [Ad]2 [Ad]2 [G=e]2 [Gc]2 | [Cc]2 [CA]2 [=B,F]2 [CE]2 | D6 C2 | C6 |] %10
V:2
 G2 | E2 D2 C2 x2 | C2 x2 c2 x2 | A2 G2 F2 x2 | =B,2 C2 x5 | x8 | x8 | x8 | (C4 =B,2) C2 | C6 |] %10
V:3
 G,2 | E,2 D,2 C,2 [B,,=E,]2 | [A,,F,]2 [G,,=E,]2 [F,,F,]2 C2 | A,2 G,2 F,2 [E,A,]2 | %4
 [D,F,]2 [C,F,]2 [=B,,F,]2 [G,,D,]2 x | [C,=E,]2 [D,F,]2 [E,G,]2 [C,C]2 | %6
 [F,C]2 [F,=B,]2 [C,C]2 [=E,_B,]2 | [F,A,]2 F,2 [D,A,]2 G,2 | G,4 [G,,F,]4 | [C,E,]6 |] %10
V:4
 G,2 | =E,2 D,2 C,2 x2 | x6 C2 | A,2 G,2 F,2 x2 | x9 | x8 | x8 | x2 F,2 (E,F,) x2 | G,4 x4 | x6 |] %10

